X:1
T:Title
%%score { 1 | ( 2 3 ) }
L:1/8
M:3/4
K:F
V:1 treble nm="Grand Piano"
V:2 treble 
V:3 treble 
V:1
 z2 z2[Q:1/4=94] F2 | A>B c2 f2 | e>d c2 d2 | c>A F2 [DB]2 |[M:2/4] [G,CEG]4 |[M:1/4] [A,CEA]2 | %6
[M:3/4] [A,CF]>[CE] [CF]2 [G,B,G]2 | [G,B,E]>[B,D] [B,C]2 [F,A,CF]2 | %8
 [G,B,E]>[B,D] [B,C]2 [B,CEG]2 |[M:2/4] [A,CF]4 |] %10
V:2
 z2 z2 [A,C]2 | [F,CF]>[G,CF] [A,CF]2 [DF]2 | [CF]>[B,F] [A,F]2 [B,F]2 | %3
 [A,F]>[K:bass]F, D,2 [B,,G,]2 |[M:2/4] C,4 |[M:1/4] A,,2 |[M:3/4] z z/ A,/ A,2 G,,2 | %7
 z z/ F,/ E,2 F,,2 | C,4 z2 |[M:2/4] [F,,F,]4 |] %10
V:3
 x6 | x6 | x6 | x3/2[K:bass] x9/2 |[M:2/4] x4 |[M:1/4] x2 |[M:3/4] D,4 z2 | C,4 z2 | %8
 z z/ F,/ D,2 [C,,C,]2 |[M:2/4] x4 |] %10

